X: 42993
T: Willie's Auld Trews
R: strathspey
M: 4/4
K: Eminor
D|A,DDF E2 A,E|F2 ED ECCE|A,DDF E3A|GFED CA,A,:|
|:c|AcAF GcGE|F2GF ECCc|AcAF GcGE|F2 ED CA,A,|
AcAF GcGE|F2GF ECCc|AcBc GcEc|DFED CA,A,||
|:c|Addf e2 Ae|f2ed ecce|Addf e3a|(gf)ed cAA:|
|:c|AFcF GEcE|FDGF ECCc|AFcF GEcE|DFED CA,A,c|
AFcF GEcE|FDGF ECCc|AcBc GcEc|DFED CA,A,:|

